X:52
T:Gavotte - Bal
C:Dour 65
M:6/8
L:1/8
K:G
G|GFG d3|efe d3|GcB A2B|c2B G2:|\
B|B2A G2B|ABA G3|
G2B d2g|f2e d3|\
c2c cdc|B2B BcB|A2G A2B|cBA G3||
